X: 5
T: The Steampacket
R: reel
M: 4/4
L: 1/8
K: Gmaj
| A~G3 AGFD | A~G3 Addc | A2GB AGFD | ~F3G ABcB |A~G3 AGFD | A~G3 Addc | A2GB AGFD | ~F3G ABcA |d~g3 a~g3 | dgge fdcA | d~g3 aggf | dcde fdcA |d~g3 agfg | abag ~f3g | afge fdef | dfag fdcA ||


Tune 690	Setting 13741

